X:1
T:Rosmore, 65.65 D refrain
T:Rosmore, 65.65 D refrain
T:Henry Gough Trembath, 1893
T:Public Domain Courtesy of the Cyber Hymnal™
C:Henry Gough Trembath, 1893
Z:Public Domain
Z:Courtesy of the Cyber Hymnal™
%%score ( 1 2 ) ( 3 4 )
L:1/8
Q:1/4=115
M:4/4
K:Ab
V:1 treble 
V:2 treble 
V:3 bass 
V:4 bass 
V:1
 [Ec]2 [EA]2 E2 [EF]2 | (G3 A) [EG]4 x2 | [Ed]2 [EB]2 [DG]2 [DF]2 | [CE]8 | [Ec]2 [EA]2 E2 [EF]2 | %5
 (A3 A) [EG]4 | [=Dc]2 [DB]2 [DA]2 (GF) | E8 | [GB]2 [GB]2 [^Fc]2 [GB]2 | (d3 B) F4 | %10
 [FA]2 [FA]2 [=EB]2 [FA]2 | [Ec]8 | [=Ec]2 [Ed]2 [Ec]2 [EG]2 | B4 A4 | [=DA]3 [DA] [DG]2 [DF]2 x | %15
 E8 | E2 [EF]2 [EG]2 [EA]2 | (=A2 B2) [Ee]4 x2 | E2 [EF]2 [EG]2 [EA]2 | (c4 B4) | %20
 [Dd]3 [Dd] [Ec]2 [EB]2 | (e3 c) [CA]4 | [FB]2 (cd) B3 [EA] | [EA]8 |] %24
V:2
 x8 | E4 x6 | x8 | x8 | x4 E2 x2 | E4 x4 | x6 =D2 | x8 | x8 | F4 x4 | x8 | x8 | x8 | %13
 (G2 F2) (E2 E2) | x9 | x8 | E2 x6 | E4 x6 | E2 x6 | =D8 | x8 | E4 x4 | x2 F2 (G2 E) x | x8 |] %24
V:3
 [A,,A,C]2 [E,,E,C]2 [A,,A,C]2 [E,,E,C]2 | D4 [E,,E,]2 [B,D]4 | %2
 [G,,G,B,]2 [E,,E,G,]2 [B,,B,]2 [G,,G,B,]2 | [A,C]8 | [A,C]2 [E,C]2 [A,C]2 [=A,C]2 | B,4 B,4 | %6
 [B,,A,]2 [B,,F,]2 [B,,C]2 (B,A,) | [E,G,]8 | [E,B,]2 [E,B,]2 [E,=A,]2 [E,B,]2 | (B,2 D2) [B,D]4 | %10
 [D,D]2 [D,A,]2 [D,G,]2 [D,A,]2 | [A,,A,]8 | [G,B,]2 [G,B,]2 [C,G,]2 [C,C]2 | [E,C]4 [A,C]4 | %14
 C3 z C [B,,B,]2 [B,,A,]2 | ([E,G,]2 [F,A,]2 B,2 =B,2) | [A,,A,C]2 [E,,E,C]2 [A,,A,C]2 [E,,E,C]2 | %17
 D4 [E,,E,]2 [G,D]4 | [A,C]2 [A,C]2 [G,B,]2 [G,B,]2 | [F,,F,A,]8 | %20
 [_F,A,]3 [F,A,] [E,A,]2 [D,G,]2 | [C,A,]4 [F,A,]4 | [D,D]2 [B,,D]2 [E,D]3 [A,,C] | [A,,C]8 |] %24
V:4
 x8 | ([B,,B,]2 B,,2 E,,2) x4 | x8 | (A,,2 E,,2 G,,2 E,,2) | x8 | B,4 B,4 | x6 B,,2 | x8 | x8 | %9
 B,,4 x4 | x8 | x8 | x8 | x8 | B,,2 B,,2 x5 | x4 G,4 | x8 | ([G,,G,]2 G,,2 E,,2) x4 | x8 | x8 | %20
 x8 | x8 | x8 | x8 |] %24

